X: 10252
Q: "Moderately"
M: C
L: 1/16
K: C
e>d |\
c3A G2E2 G4 G2A2 | c3d {e}d2cd e2d2d2ed |\
{Bd}c3A G2E2 G4 G2A2 | Tc3d {e}d2cd e2c2c2 :|
|: Tc>d |\
e2d2e2f2 {ef}g4 Tf2e2 | da3a3g a2d2 Hd2 (g/f/e/d/) |\


